src/components/custom-icon/assets/drag.svg

<?xml version="1.0" encoding="UTF-8" standalone="no"?><svg width="16" height="11" viewBox="0 0 16 11" xmlns="http://www.w3.org/2000/svg"><title>DRAG_ICON-1</title><g fill="none" fill-rule="evenodd"><path d="M0 0h16v11H0z"/><path d="M2 0C.9 0 0 .9 0 2s.9 2 2 2 2-.9 2-2-.9-2-2-2zm12 0c-1.1 0-2 .9-2 2s.9 2 2 2 2-.9 2-2-.9-2-2-2zM8 0C6.9 0 6 .9 6 2s.9 2 2 2 2-.9 2-2-.9-2-2-2zM2 7C.9 7 0 7.9 0 9s.9 2 2 2 2-.9 2-2-.9-2-2-2zm12 0c-1.1 0-2 .9-2 2s.9 2 2 2 2-.9 2-2-.9-2-2-2zM8 7c-1.1 0-2 .9-2 2s.9 2 2 2 2-.9 2-2-.9-2-2-2z" fill="#AFAFAF"/></g></svg>

<?xml version="1.0" encoding="UTF-8" standalone="no"?>
<svg width="16px" height="11px" viewBox="0 0 16 11" version="1.1" xmlns="http://www.w3.org/2000/svg" xmlns:xlink="http://www.w3.org/1999/xlink">
    <!-- Generator: Sketch 40.1 (33804) - http://www.bohemiancoding.com/sketch -->
    <title>DRAG_ICON-1</title>
    <desc>Created with Sketch.</desc>
    <defs></defs>
    <g id="Page-1" stroke="none" stroke-width="1" fill="none" fill-rule="evenodd">
        <g id="DRAG_ICON-1">
            <g id="exploration">
                <g id="ic_more_horiz_black_24px">
                    <g id="Group">
                        <polygon id="Shape" points="0 0 16 0 16 11 0 11"></polygon>
                        <path d="M2,0 C0.9,0 0,0.9 0,2 C0,3.1 0.9,4 2,4 C3.1,4 4,3.1 4,2 C4,0.9 3.1,0 2,0 L2,0 L2,0 Z M14,0 C12.9,0 12,0.9 12,2 C12,3.1 12.9,4 14,4 C15.1,4 16,3.1 16,2 C16,0.9 15.1,0 14,0 L14,0 L14,0 Z M8,0 C6.9,0 6,0.9 6,2 C6,3.1 6.9,4 8,4 C9.1,4 10,3.1 10,2 C10,0.9 9.1,0 8,0 L8,0 L8,0 Z" id="Shape" fill="#AFAFAF"></path>
                        <path d="M2,7 C0.9,7 0,7.9 0,9 C0,10.1 0.9,11 2,11 C3.1,11 4,10.1 4,9 C4,7.9 3.1,7 2,7 L2,7 L2,7 Z M14,7 C12.9,7 12,7.9 12,9 C12,10.1 12.9,11 14,11 C15.1,11 16,10.1 16,9 C16,7.9 15.1,7 14,7 L14,7 L14,7 Z M8,7 C6.9,7 6,7.9 6,9 C6,10.1 6.9,11 8,11 C9.1,11 10,10.1 10,9 C10,7.9 9.1,7 8,7 L8,7 L8,7 Z" id="Shape" fill="#AFAFAF"></path>
                    </g>
                </g>
            </g>
        </g>
    </g>
</svg>
